X: 1
T:The Pining Maid
B:Joyce, P. W.; "Old Irish Folk Music and Songs"
N:See #347 for history
R:reel
A:Limerick
O:Irish
L:1/8
M:C
K:C
EAAA A3 B|cAdA cAGE|Addd d3 e|fdec dcAG|
EAAA A3 d|fdec dcAG|AddA cAGF|GEcE D2D2||
f2 fd edcA|c2 cd cA A2|f2 fd edcA|Addc defg|
af ~f2 ge ~e2|fdec dcAG|AddA cAGF|GEcE D2 D2||
